X: 92
T:Pigeon on the Gate
R:Reel
M:C|
L:1/8
Q:1/2=112
K:Edor
dc|BE~E2 BEdE|BE~E2 dBAF|D2 (3FED ADFD|FA~A2 BAFA|
BE~E2 BEdE|BE~E2 dBAF|D2FA dfec|dBAF E2:|
|:FA|Beed efed|(3Bcd ef gfed|B[dA][dF][cA] dedB|AF~F2 DEFA|
Beed efed|(3Bcd ef g2fg|(3agf ge fdec|dBAF E2:|
